!! 00000] TT[WS
!!!OTL: Qia Suantai
!!!ARE: Asia, China,ÿShanxi Linxian
!! Ethnic Group: Han
!! WI, 158 (1)
!!!SCT: J0192
!!!YEM: Copyright 1995, estate of Helmut Schaffrath.
**kern
*ICvox
*Ivox
*M2/4
*k[f#]
*G:
{8.dd
16ee
8dd
16a
=1
8.dd
16gg
8ee
8dd
=2
4a
8dd
8a
=3
8g
8e
4g}
=4
{8a
8a
16ee
8dd
16dd
=5
8cc
8dd
8a
16a
16g
=6
16e
8e
16A
8g
8e
=7
2d}
==
!!!AGN: Xiaodiao. Qingge
!!!ONB: ESAC (Essen Associative Code) Database: CHINA
!!!AMT: simple duple
!!!AIN: vox
!!!EED: Helmut Schaffrath
!!!EEV: 1.0
*-
